X: 41797
T: Vermont, The
R: jig
M: 6/8
K: Gmajor
||DB,|:G,B,D GDB,|CEG cBc|dBG cAF|GDC B,CA,|
G,B,D GDB,|CEG cBc|dBG cAF|1 AGF G3:|2 AGF G2B||
|:dgb afd|gdB cBc|dBG cAF|GDE FGA|
dgb afd|gdB cBc|dBG cAF|AGF G3:|

